static/assets/infographics/Icon_designers.svg

<svg xmlns='http://www.w3.org/2000/svg' viewBox='0 0 43.9 52'><path d='M31.9 22l7.5-13.3-9.3-5.2-8 14.2 7.7 4.3h2.1zm-5-5.9c-.2 0-.4 0-.5-.1l-.5-.3c-.3-.2-.4-.6-.2-.9L30 7.2c0-.1.2-.2.3-.3.2 0 .4 0 .5.1l.5.3c.3.2.4.6.2.9l-4.3 7.6c0 .1-.1.2-.3.3zm-.2 5.9h-7.1l1.7-3 5.4 3zm16.9-11.6L37.1 22h-3.7l8.4-15 1 .6c1 .6 1.4 1.8.8 2.8zm-4.8-3.7L31 2.3C32.2.1 34.9-.6 37.1.6c2.1 1.2 2.9 3.9 1.7 6.1zM4.9 22H7l-.7-2.5c0-.2 0-.3.1-.4.1-.1.2-.2.4-.3l.5-.1c.3-.1.7 0 .7.3l.8 3h5.8l-2.9-11-9.1 2.4L4.9 22zm.8-7.4l.5-.1c.3-.1.6.1.7.4l.3 1c0 .2 0 .3-.1.4-.1.1-.2.2-.4.3l-.5.1c-.2 0-.3 0-.4-.1-.1-.1-.2-.2-.3-.4l-.3-1c0-.2.2-.5.5-.6zm-4-4.7l9.1-2.4.6 2.5-9.1 2.4-.6-2.5zM1.5 9l9.1-2.4-1-3.3c-.2-1.1-1.4-1.8-2.4-1.5L2 3.2c-.5.1-1 .4-1.2.9-.3.5-.3 1-.2 1.5L1.5 9zm6.3-5.5l.5 1.8-5.5 1.5L2.3 5l5.5-1.5zM1 24.5H0L6 50c0 1.1 5.9 2 13.1 2 6.8 0 12.4-.8 13-1.8h.1l6-25.7H1zm9 23.4c-.2 0-.3.1-.5.1-.8 0-1.6-.6-1.8-1.4l-4-15.9c-.2-1 .3-2 1.3-2.2 1-.2 2 .3 2.2 1.3l4 15.9c.4.9-.2 1.9-1.2 2.2zm0 0' fill='#6d6e71'/></svg>

<?xml version="1.0" encoding="utf-8"?>
<!-- Generator: Adobe Illustrator 19.2.0, SVG Export Plug-In . SVG Version: 6.00 Build 0)  -->
<svg version="1.1" id="Layer_1" xmlns="http://www.w3.org/2000/svg" xmlns:xlink="http://www.w3.org/1999/xlink" x="0px" y="0px"
	 viewBox="0 0 43.9 52" style="enable-background:new 0 0 43.9 52;" xml:space="preserve">
<style type="text/css">
	.st0{fill:#6D6E71;}
</style>
<path class="st0" d="M31.9,22l7.5-13.3l-9.3-5.2l-8,14.2l7.7,4.3H31.9z M26.9,16.1c-0.2,0-0.4,0-0.5-0.1l-0.5-0.3
	c-0.3-0.2-0.4-0.6-0.2-0.9l4.3-7.6C30,7.1,30.2,7,30.3,6.9c0.2,0,0.4,0,0.5,0.1l0.5,0.3c0.3,0.2,0.4,0.6,0.2,0.9l-4.3,7.6
	C27.2,15.9,27.1,16,26.9,16.1L26.9,16.1z M26.7,22h-7.1l1.7-3L26.7,22z M43.6,10.4L37.1,22h-3.7l8.4-15l1,0.6
	C43.8,8.2,44.2,9.4,43.6,10.4L43.6,10.4z M38.8,6.7L31,2.3c1.2-2.2,3.9-2.9,6.1-1.7C39.2,1.8,40,4.5,38.8,6.7L38.8,6.7z M4.9,22H7
	l-0.7-2.5c0-0.2,0-0.3,0.1-0.4c0.1-0.1,0.2-0.2,0.4-0.3l0.5-0.1C7.6,18.6,8,18.7,8,19l0.8,3h5.8l-2.9-11l-9.1,2.4L4.9,22z M5.7,14.6
	l0.5-0.1c0.3-0.1,0.6,0.1,0.7,0.4l0.3,1c0,0.2,0,0.3-0.1,0.4c-0.1,0.1-0.2,0.2-0.4,0.3l-0.5,0.1c-0.2,0-0.3,0-0.4-0.1
	c-0.1-0.1-0.2-0.2-0.3-0.4l-0.3-1C5.2,15,5.4,14.7,5.7,14.6L5.7,14.6z M1.7,9.9l9.1-2.4l0.6,2.5l-9.1,2.4L1.7,9.9z M1.5,9l9.1-2.4
	L9.6,3.3C9.4,2.2,8.2,1.5,7.2,1.8L2,3.2C1.5,3.3,1,3.6,0.8,4.1c-0.3,0.5-0.3,1-0.2,1.5L1.5,9z M7.8,3.5l0.5,1.8L2.8,6.8L2.3,5
	L7.8,3.5z M1,24.5H0L6,50c0,0,0,0,0,0c0,1.1,5.9,2,13.1,2c6.8,0,12.4-0.8,13-1.8h0.1l6-25.7H1z M10,47.9c-0.2,0-0.3,0.1-0.5,0.1
	c-0.8,0-1.6-0.6-1.8-1.4l-4-15.9c-0.2-1,0.3-2,1.3-2.2c1-0.2,2,0.3,2.2,1.3l4,15.9C11.6,46.6,11,47.6,10,47.9L10,47.9z M10,47.9"/>
</svg>
